X:1
T:Title
%%score { 1 | ( 2 3 ) }
L:1/8
Q:1/4=100
M:6/8
K:Eb
V:1 treble nm="Grand Piano"
V:2 bass 
V:3 bass 
V:1
 [EG]2 [FA] [GB]2 [_G=A] | [Ac]2 [GB] G3 | E2 G [GB]2 [EG] | [EG]3 [DF]3 | %4
w: J.~H.~Tenney * * *||||
 [EG]2 [FA] [GB]2 [_G=A] | [Ac]2 [GB] G3 | E2 F G2 [B,EB] | [A,DF]3 [G,E]3 | %8
w: ||||
 [B,DF]2 [B,DF] [B,FB]2 [B,FB] | c2 c d3 | [Ge]2 [Ge] [Fd]2 [DB] | %11
w: |||
[M:15/16] [Ec]3 [B,DB]3/2- [B,DB]3 |[M:3/4] [B,EG]2 [B,FA] [EGB]2 [E_G=A] | [EAc]2 [EGB] [B,EG]3 | %14
w: |||
 [B,E]2 [B,DF] [B,EG]2 [B,EB] | [A,DF]3 [G,E]3 |] %16
w: ||
V:2
 [E,B,]2 [E,B,] [E,E]2 [E,E] | [E,E]2 [E,E] [E,B,E]3 | [E,G,]2 [E,B,E] [E,E]2 [E,B,] | %3
 [B,,B,]3 [B,,B,]3 | [E,B,]2 [E,B,] [E,E]2 [E,E] | [E,E]2 [E,E] [E,B,E]3 | %6
 [G,B,]2 [F,B,D] [E,B,E]2 G,, | B,,3 E,3 | B,,2 B,, D,2 D, | [F,=A,F]2 [F,A,F] [B,F]3 | %10
 [E,B,]2 [E,B,] [B,,B,]2 [B,,B,] |[M:15/16] [F,=A,]3 z3/2 z/[K:treble] A-A3/2 | %12
[M:3/4][K:bass] E,2 E, E,2 E, | E,2 E, E,3 | G,2 F, E,2 G,, | B,,3 E,3 |] %16
V:3
 x6 | x6 | x6 | x6 | x6 | x6 | x6 | x6 | x6 | x6 | x6 |[M:15/16] z3 B,,3/2- B,,3[K:treble] | %12
[M:3/4][K:bass] x6 | x6 | x6 | x6 |] %16

